!!!!SEGMENT: pl-kk--kk-i-476--002_studzinski-wincenty--msza-gloria.krn
!!!cenid: 18xx:1373
!!!COM: Studziński, Wincenty
!!!COM-rismid: pe41023091
!!!CDT: 1815/03/30-1854/07/15
!!!CNT: Polish
!!!OPR: Msza
!!!OTL: Gloria
!!!OMV: 002
!!!PDT:
!!!AGN: Sacred; Mass
!!!SMS-siglum: PL-Kk
!!!SMS-shelfmark: Kk.I.476
!!!SMS-shelfwork: 001-002 M
!!!SMS-variant: S PL-Kk I 476 0002-0003; A tamże 0008; T tamże 0012-0013; B tamże 0016-0017
!!!SMS-altvar: sparowane głosy PL-Kk I 476 0022 (inna ręka i papier)
!!!NIFC-rismid: 1001140245
!!!URL-scan: http://repozytorium.nifc.pl/skany/pl-kk-nut--i-476
!!!ONB-nifc: UWAGA: części Mszy: 1. Kirie, 2. Gloria, 3. Credo, 4. Sanctus, 5. Benedictus, 6. Agnus
!!!key:
**kern	**text	**kern	**text	**dynam	**kern	**text	**dynam	**kern	**text	**dynam	**kern	**text	**dynam	**kern	**text	**dynam
*part6	*part6	*part5	*part5	*part5	*part4	*part4	*part4	*part3	*part3	*part3	*part2	*part2	*part2	*part1	*part1	*part1
*staff6	*staff6	*staff5	*staff5	*	*staff4	*staff4	*	*staff3	*staff3	*	*staff2	*staff2	*	*staff1	*staff1	*
*Iempty	*	*Iempty	*	*	*Iempty	*	*	*Itenor	*	*	*Ialto	*	*	*Isoprn	*	*
*	*	*	*	*	*I"Basſo	*	*	*I"Tenor	*	*	*I"Alto	*	*	*I"Soprano	*	*
*	*	*	*	*	*I'B	*	*	*I'T	*	*	*I'A	*	*	*I'S	*	*
*clefF4	*	*clefG2	*	*	*clefF4	*	*	*clefC4	*	*	*clefC3	*	*	*clefC1	*	*
*k[b-]	*	*k[b-]	*	*	*k[b-]	*	*	*k[b-]	*	*	*k[b-]	*	*	*k[b-]	*	*
*F:	*	*F:	*	*	*F:	*	*	*F:	*	*	*F:	*	*	*F:	*	*
*M4/4	*	*M4/4	*	*	*M4/4	*	*	*M4/4	*	*	*M4/4	*	*	*M4/4	*	*
*met(c)	*	*met(c)	*	*	*met(c)	*	*	*met(c)	*	*	*met(c)	*	*	*met(c)	*	*
*	*	*	*above	*	*	*	*	*	*	*	*	*	*	*	*	*below
=1	=1	=1	=1	=1	=1	=1	=1	=1	=1	=1	=1	=1	=1	=1	=1	=1
*	*	*^	*	*	*	*	*	*	*	*	*	*	*	*	*	*
!	!	!	!	!	!	!	!	!	!	!	!	!	!	!	!LO:SIC:o:v:=all\right	!	!
!	!	!	!	!	!	!	!	!	!	!	!	!LO:TX:rj:t=All[egr]o Mod[erat]o	!	!	!LO:TX:rj:t=All[egr]o Mod[erat]o	!	!
!	!	!LO:TX:rj:t=All[egr]o Mod[erat]o	!	!	!	!	!	!	!	!	!LO:DY:rj	!	!	!LO:DY:rj	!	!	!
4.F\	Glo-	4.f/	4.f\	.	.	4.F\	Glo-	.	4.F/	Glo-	f	4.f\	Glo-	f	4.f/	Glo-	f
8F\	-ri-	8f/	8f\	.	.	8F\	-ri-	.	8F/	-ri-	.	8f\	-ri-	.	8f/	-ri-	.
*2\right	*	*2\right	*	*	*	*2\right	*	*	*	*	*	*2\right	*	*	*	*	*
2F\	-a	2f/	2f\	.	.	2F\	-a	.	2F/	-a	.	2f\	-a	.	2f/	-a	.
=2	=2	=2	=2	=2	=2	=2	=2	=2	=2	=2	=2	=2	=2	=2	=2	=2	=2
4d\ 4F\	.	4.b-/	4.f\	.	.	4.F\	glo-	.	4.d\	glo-	.	4.f\	glo-	.	4.b-\	glo-	.
8ryy	.	.	.	.	.	.	.	.	.	.	.	.	.	.	.	.	.
8c\ 8F\	-ri-	8a/	8f\	.	.	8F\	-ri-	.	8c\	-ri-	.	8f\	-ri-	.	8a\	-ri-	.
*	*	*	*	*	*	*	*	*	*2\right	*	*	*	*	*	*2\right	*	*
2c\ 2F\	-a	2a/	2f\	.	.	2F\	-a	.	2c\	-a	.	2f\	-a	.	2a\	-a	.
*	*	*v	*v	*	*	*	*	*	*	*	*	*	*	*	*	*	*
=3	=3	=3	=3	=3	=3	=3	=3	=3	=3	=3	=3	=3	=3	=3	=3	=3
4c\ 4F\	in	4a/ 4f/	.	.	4F\	in	.	4c\	in	.	4f\	in	.	4a\	in	.
4A\ 4F\	ex-	4f/ 4c/	.	.	4F\	ex-	.	4A\	ex-	.	4c\	ex-	.	4f\	ex-	.
4B-\ 4D\	-cel-	4b-/ 4d/	.	.	4D\	-cel-	.	4B-\	-cel-	.	4d\	-cel-	.	4b-\	-cel-	.
4B-\ 4BB-\	-sis	4dd/ 4d/	.	.	4BB-/	-sis	.	4B-\	-sis	.	4d\	-sis	.	4dd\	-sis	.
=4	=4	=4	=4	=4	=4	=4	=4	=4	=4	=4	=4	=4	=4	=4	=4	=4
*	*	*^	*	*	*	*	*	*	*	*	*	*	*	*	*	*
!	!	!LO:N:vis=1.	!	!	!	!	!	!	!	!	!	!	!	!	!	!	!
2A\ 2FF\	De-	1ff/	2c/	.	.	(2FF/	De-	.	(2A\	De-	.	(2c\	De-	.	1ff\	De-	.
2B-\ 2BB-\	.	.	2d/	.	.	2BB-/)	.	.	2B-\)	.	.	2d\)	.	.	.	.	.
!	!	!	!	!	!	!	!	!	!	!	!	!LO:LB:g=original	!	!	!	!	!
=5	=5	=5	=5	=5	=5	=5	=5	=5	=5	=5	=5	=5	=5	=5	=5	=5	=5
*^	*	*	*	*	*	*	*	*	*	*	*	*	*	*	*	*	*
4A\ 4FF\	2ryy	-o	4ff/	4c/	.	.	4FF/	-o	.	4A\	-o	.	4c\	-o	.	4ff\	-o	.
4r	.	.	4r	4r	.	.	4r	.	.	4r	.	.	4r	.	.	4r	.	.
!	!	!	!LO:TX:t=P:problem:słowa nad pięciolinią	!	!	!	!	!	!	!	!	!	!	!	!	!	!	!
4c/	2r	Et	4cc/	2r	Et	.	2r	.	.	4c\	Et	.	2r	.	.	4cc\	Et	.
4c/	.	in	4cc/	.	in	.	.	.	.	4c\	in	.	.	.	.	4cc\	in	.
!	!	!	!	!	!	!	!LO:LB:g=original	!	!	!LO:LB:g=original	!	!	!	!	!	!LO:LB:g=original	!	!
=6	=6	=6	=6	=6	=6	=6	=6	=6	=6	=6	=6	=6	=6	=6	=6	=6	=6	=6
1c/	2r	.	[1cc/	2r	ter-	.	2r	.	.	(1c\	ter-	.	2r	.	.	(1cc\	ter-	.
.	4B-\	Et	.	4g\	.	.	4B-\	Et	.	.	.	.	4g\	Et	.	.	.	.
.	4B-\	in	.	4g\	.	.	4B-\	in	.	.	.	.	4g\	in	.	.	.	.
=7	=7	=7	=7	=7	=7	=7	=7	=7	=7	=7	=7	=7	=7	=7	=7	=7	=7	=7
2c/	2A\	ter-	2cc/]	2f#X\	.	.	2A\	ter-	.	2c\)	.	.	2f#X\	ter-	.	2cc\)	.	.
2c/	2A-X\	-ra	2cc/	2fn\	-ra	.	2A-X\	ra	.	2c\	-ra	.	2fn\	ra	.	2cc\	-ra	.
=8	=8	=8	=8	=8	=8	=8	=8	=8	=8	=8	=8	=8	=8	=8	=8	=8	=8	=8
4c/	4G\	pax	4cc/	4e\	.	.	4G\	pax	.	4c\	pax	.	4e\	pax	.	4cc\	pax	.
4r	4r	.	4r	4r	.	.	4r	.	.	4r	.	.	4r	.	.	4r	.	.
2r	4C\	pax	2r	4c\	.	.	4C/	pax	.	2r	.	.	4c\	pax	.	2r	.	.
.	4C\	ho-	.	4c\	.	.	4C/	ho-	.	.	.	.	4c\	ho-	.	.	.	.
!LO:LB:g=original	!	!	!	!	!	!	!	!	!	!	!	!	!	!	!	!	!	!
=9	=9	=9	=9	=9	=9	=9	=9	=9	=9	=9	=9	=9	=9	=9	=9	=9	=9	=9
2r	2C\	-mi-	2r	1c\	.	.	(1C/	-mi-	.	2r	.	.	(1c\	-mi-	.	2r	.	.
!	!	!	!LO:TX:t=P:problem:słowa nad pięciolinią	!	!	!	!	!	!	!	!	!	!	!	!	!	!	!
4B-/	2C\	.	4g/	.	pax	.	.	.	.	4B-\	pax	.	.	.	.	4g\	pax	.
4B-/	.	.	4g/	.	ho-	.	.	.	.	4B-\	ho-	.	.	.	.	4g\	ho-	.
=10	=10	=10	=10	=10	=10	=10	=10	=10	=10	=10	=10	=10	=10	=10	=10	=10	=10	=10
2A\	2C\	-mi-	2f#X/	2c\	-mi-	.	2C/)	.	.	2A\	-mi-	.	2c\)	.	.	2f#X/	-mi-	.
2A-X\	2C\	-ni	2fn/	2c\	-ni-	.	2C/	-ni-	.	2A-X\	-ni-	.	2c\	-ni-	.	2fn/	-ni-	.
!	!	!	!	!	!	!	!	!	!	!	!	!	!LO:LB:g=original	!	!	!	!	!
=11	=11	=11	=11	=11	=11	=11	=11	=11	=11	=11	=11	=11	=11	=11	=11	=11	=11	=11
4G\ 4C\	4ryy	.	4e/	4c\	-bus	.	4C/	-bus	.	4G/	-bus	.	4c\	-bus	.	4e/	-bus	.
4r	4ryy	.	4r	4rd	.	.	4r	.	.	4r	.	.	4r	.	.	4r	.	.
4C/	4C\	bo-	4c/	2ryy	.	.	4C/	bo-	.	4C/	bo-	.	4c\	bo-	.	4c/	bo-	.
!	!	!	!	!	!	!	!LO:SIC:l:s=nae	!	!	!LO:SIC:l:s=nae	!	!	!LO:SIC:l:s=nae	!	!	!LO:SIC:l:s=nae	!	!
4C/	4C\	-ne	4c/	.	.	.	4C/	-ne	.	4C/	-ne	.	4c\	-ne	.	4c/	-ne	.
!	!	!	!	!	!	!	!	!	!	!LO:LB:g=original	!	!	!	!	!	!	!	!
=12	=12	=12	=12	=12	=12	=12	=12	=12	=12	=12	=12	=12	=12	=12	=12	=12	=12	=12
(4D/	4D\	vo-	4d/	4d\	.	.	(4D\	vo-	.	(4D/	vo-	.	(4d\	vo-	.	(4d/	vo-	.
4C/)	4C\	.	4c/	4c\	.	.	4C\)	.	.	4C/	.	.	4c\	.	.	4c/	.	.
4D/	4D\	.	4d/	4d\	.	.	4D\	.	.	4D/)	.	.	4d\)	.	.	4d/)	.	.
4E/	4E\	-lun-	4e/	4e\	.	.	4E\	-lun-	.	4E/	-lun-	.	4e\	-lun-	.	4e/	-lun-	.
!	!	!	!	!	!	!	!LO:LB:g=original	!	!	!	!	!	!	!	!	!LO:LB:g=original	!	!
=13	=13	=13	=13	=13	=13	=13	=13	=13	=13	=13	=13	=13	=13	=13	=13	=13	=13	=13
(4F/	4F\	-ta-	4f/	4f\	.	.	(4F\	-ta-	.	(4F/	-ta-	.	(4f\	-ta-	.	(4f/	-ta-	.
4E/)	4E\	.	4e/	4e\	.	.	4E\)	.	.	4E/)	.	.	4e\)	.	.	4e/)	.	.
4F/	4F\	-tis	4f/	4f\	.	.	4F\	-tis	.	4F/	-tis	.	4f\	-tis	.	4f/	-tis	.
4c\ 4C\	4ryy	Lau-	4g/	4e\	.	.	4C\	Lau-	.	4c\	Lau-	.	4e\	Lau-	.	4g/	Lau-	.
*v	*v	*	*	*	*	*	*	*	*	*	*	*	*	*	*	*	*	*
*	*	*v	*v	*	*	*	*	*	*	*	*	*	*	*	*	*	*
=14	=14	=14	=14	=14	=14	=14	=14	=14	=14	=14	=14	=14	=14	=14	=14	=14
!	!	!	!	!	!	!	!	!	!	!	!	!	!	!LO:TX:t=P:problem:ołówkiem dopisana kropka przy nucie	!	!
4.c\ 4.A\	-da-	4.a/ 4.f/	.	.	4.F\	-da-	.	4.c\	-da-	.	4.f\	-da-	.	4a/	-da-	.
.	.	.	.	.	.	.	.	.	.	.	.	.	.	8ryy	.	.
!	!	!	!	!	!	!	!	!	!	!	!	!	!	!LO:TX:t=P:problem:ołówkiem skreślona kropka przy nucie	!	!
8A\ 8FF\	-mus	8f/ 8c/	.	.	8FF/	-mus	.	8A\	-mus	.	8c\	-mus	.	8.f/	-mus	.
!	!	!	!	!	!	!	!	!	!	!	!LO:SIC:s=8b-	!	!	!	!	!
8A\ 8FF\	te	8f/ 8c/	.	.	8FF/	te	.	8A\	te	.	8c\	te	.	.	te	.
!	!	!	!	!	!	!	!	!	!	!	!	!	!	!LO:TX:t=P:problem:ołówkiem skreślona 16 i zamieniona na 8dd	!	!
.	.	.	.	.	.	.	.	.	.	.	.	.	.	16f/	.	.
*	*	*	*below	*	*	*	*	*	*	*	*	*	*	*	*	*
8r	.	8dd/ 8b-/	Be-	.	8r	.	.	8r	.	.	8b-\	Be-	.	8dd\	Be-	.
4r	.	8dd/ 8b-/	-ne-	.	4r	.	.	4r	.	.	8b-\	-ne-	.	8dd\	-ne-	.
.	.	8dd/ 8b-/	-di-	.	.	.	.	.	.	.	8b-\	-di-	.	8dd\	-di-	.
=15	=15	=15	=15	=15	=15	=15	=15	=15	=15	=15	=15	=15	=15	=15	=15	=15
2r	.	4.cc/ 4.a/	-ci-	.	2r	.	.	2r	.	.	4.a\	-ci-	.	4.cc\	-ci-	.
.	.	8a/ 8f/	-mus	.	.	.	.	.	.	.	8f\	-mus	.	8a\	-mus	.
4r	.	4a/ 4f/	te	.	4r	.	.	4r	.	.	4f\	te	.	4a\	te	.
8d\L 8B-\	A-	4r	.	.	8B-\	a-	.	8d\	A-	.	4r	.	.	4r	.	.
8d\J 8B-\	-do-	.	.	.	8B-\	-do-	.	8d\	-do-	.	.	.	.	.	.	.
!	!	!	!	!	!	!	!	!	!	!	!LO:LB:g=original	!	!	!	!	!
=16	=16	=16	=16	=16	=16	=16	=16	=16	=16	=16	=16	=16	=16	=16	=16	=16
4.c\ 4.A\	-ra-	2r	.	.	4.A\	-ra-	.	4.c\	-ra-	.	2r	.	.	2r	.	.
8A\ 8F\	-mus	.	.	.	8F\	-mus	.	8A\	-mus	.	.	.	.	.	.	.
8A\ 8F\	te	8r	.	.	4F\	te	.	4A\	te	.	8r	.	.	8r	.	.
8r	.	8dd/L 8b-/	Glo-	.	.	.	.	.	.	.	8b-\	Glo-	.	8dd\	Glo-	.
4r	.	8dd/ 8b-/	-ri-	.	4r	.	.	4r	.	.	8b-\	-ri-	.	8dd\	-ri-	.
.	.	8dd/J 8b-/	-fi-	.	.	.	.	.	.	.	8b-\	-fi-	.	8dd\	-fi-	.
!LO:LB:g=original	!	!	!	!	!	!	!	!	!	!	!	!	!	!	!	!
=17	=17	=17	=17	=17	=17	=17	=17	=17	=17	=17	=17	=17	=17	=17	=17	=17
*^	*	*	*	*	*	*	*	*	*	*	*	*	*	*	*	*
!LO:SIC:o:s:v:=wykreślony takt	!	!	!	!	!	!	!	!	!	!	!	!	!	!	!	!	!
4ryy	4r	.	1cc/ 1a/	-ca	.	4r	.	.	4r	.	.	(1a\	-ca-	.	(1cc\	-ca-	.
4F/	4F\	glo-	.	.	.	4F\	Glo-	.	4F/	Glo-	.	.	.	.	.	.	.
4F/	4F\	-ri-	.	.	.	4F\	-ri-	.	4F/	-ri-	.	.	.	.	.	.	.
4F/	4F\	-fi-	.	.	.	4F\	-fi-	.	4F/	-fi-	.	.	.	.	.	.	.
*v	*v	*	*	*	*	*	*	*	*	*	*	*	*	*	*	*	*
!	!	!	!	!	!LO:LB:g=original	!	!	!LO:LB:g=original	!	!	!	!	!	!LO:LB:g=original	!	!
=18	=18	=18	=18	=18	=18	=18	=18	=18	=18	=18	=18	=18	=18	=18	=18	=18
2.c\ 2.F\	-ca-	2.cc/ 2.a/	.	.	2.F\	-ca-	.	2.F/	-ca-	.	2.a\)	.	.	2.cc\)	.	.
4c\ 4F\	-mus	4a/ 4f/	.	.	4F\	-mus	.	4F/	-mus	.	4f\	-mus	.	4a\	-mus	.
=19	=19	=19	=19	=19	=19	=19	=19	=19	=19	=19	=19	=19	=19	=19	=19	=19
4c\ 4F\	te	4cc/ 4a/	.	.	4F\	te	.	4F/	te	.	4a\	te	.	4cc\	te	.
4r	.	4r	.	.	4r	.	.	4r	.	.	4r	.	.	4r	.	.
2r	.	2r	.	.	2r	.	.	2r	.	.	2r	.	.	2r	.	.
=20	=20	=20	=20	=20	=20	=20	=20	=20	=20	=20	=20	=20	=20	=20	=20	=20
!	!	!	!	!	!	!	!	!	!	!LO:DY:rj	!	!	!	!	!	!LO:DY:rj:b
2c\ 2F#X\	Gra-	2ee-X/ 2a/	.	.	2F#X\	Gra-	.	2c\	Gra-	fp	2a\	Gra-	.	2ee-X\	Gra-	fp
4d\ 4F#\	-ti-	4dd/ 4a/	.	.	4F#\	-ti-	.	4d\	-ti-	.	4a\	-ti-	.	4dd\	-ti-	.
4e-X\ 4F#\	-as	4cc/ 4a/	.	.	4F#\	-as	.	4e-X\	-as	.	4a\	-as	.	4cc\	-as	.
=21	=21	=21	=21	=21	=21	=21	=21	=21	=21	=21	=21	=21	=21	=21	=21	=21
*^	*	*	*	*	*	*	*	*	*	*	*	*	*	*	*	*
!	!LO:TX:t=P:problem:poprawki korekorskie z 2F# na 2g	!	!	!	!	!	!	!	!	!	!	!	!	!	!	!	!
4.e-X/	2G\	a-	4.cc/ 4.a/	.	.	2G\	a-	.	4.e-X\	a-	.	4.a\	a-	.	4.cc\	a-	.
8d/	.	-gi-	8b-/ 8g/	.	.	.	.	.	8d\	-gi-	.	8g\	-gi-	.	8b-\	-gi-	.
4d/	4G\	-mus	4b-/ 4g/	.	.	4G\	-gi-	.	4d\	-mus	.	4g\	-mus	.	4b-\	-mus	.
4r	4Fn\	.	4r	.	.	4Fn\	-mus	.	4r	.	.	4r	.	.	4r	.	.
*v	*v	*	*	*	*	*	*	*	*	*	*	*	*	*	*	*	*
!	!	!	!	!	!	!	!	!	!	!	!LO:LB:g=original	!	!	!	!	!
=22	=22	=22	=22	=22	=22	=22	=22	=22	=22	=22	=22	=22	=22	=22	=22	=22
2B-\ 2E\	a-	2dd-X/ 2g/	.	.	2E\	a-	.	2B-\	a-	.	2g\	a-	.	2dd-X\	a-	.
4c\ 4E\	-gi-	4cc/ 4g/	.	.	4E\	-gi-	.	4c\	-gi-	.	4g\	-gi-	.	4cc\	-gi-	.
4d-X\ 4E\	-mus	4b-/ 4g/	.	.	4E\	-mus	.	4d-X\	-mus	.	4g\	-mus	.	4b-\	-mus	.
=23	=23	=23	=23	=23	=23	=23	=23	=23	=23	=23	=23	=23	=23	=23	=23	=23
!LO:TX:t=P:problem:poprawki korekorskie z 2E na 2F	!	!	!	!	!	!	!	!	!	!	!	!	!	!	!	!
2d-X\ 2F\	ti-	2b-/ 2g/	.	.	2F\	ti-	.	2d-X\	ti-	.	2g\	ti-	.	2b-\	ti-	.
4c\ 4F\	-bi	4a/ 4f/	.	.	4F\	-bi	.	4c\	-bi	.	4f\	-bi	.	4aW\	-bi	.
4r	.	4r	.	.	4r	.	.	4r	.	.	4r	.	.	4r	.	.
!	!	!	!	!	!LO:LB:g=original	!	!	!LO:LB:g=original	!	!	!	!	!	!LO:LB:g=original	!	!
=24	=24	=24	=24	=24	=24	=24	=24	=24	=24	=24	=24	=24	=24	=24	=24	=24
2.c\ 2.A\	prop-	2.cc/ 2.f/	.	.	2.A\	prop-	.	2.c\	prop-	.	2.f\	prop-	.	2.cc\	prop-	.
4c\ 4A\	-ter	4cc/ 4f/	.	.	4A\	-ter	.	4c\	-ter	.	4f\	-ter	.	4cc\	-ter	.
!LO:LB:g=original	!	!	!	!	!	!	!	!	!	!	!	!	!	!	!	!
=25	=25	=25	=25	=25	=25	=25	=25	=25	=25	=25	=25	=25	=25	=25	=25	=25
2c\ 2A\	mag-	2cc/ 2f/	.	.	2A\	mag-	.	2c\	mag-	.	2f\	mag-	.	2cc\	mag-	.
4d\ 4B-\	-nam	4dd/ 4f/	.	.	4B-\	-nam	.	4d\	-nam	.	4f\	-nam	.	4dd\	-nam	.
4r	.	4r	.	.	4r	.	.	4r	.	.	4r	.	.	4r	.	.
=26	=26	=26	=26	=26	=26	=26	=26	=26	=26	=26	=26	=26	=26	=26	=26	=26
2.c\ 2.A\	prop-	2.cc/ 2.f/	.	.	2.A\	prop-	.	2.c\	prop-	.	2.f\	prop-	.	2.cc\	prop-	.
4c\ 4A\	-ter	4cc/ 4e/	.	.	4A\	-ter	.	4c\	-ter	.	4e\	-ter	.	4cc\	-ter	.
=27	=27	=27	=27	=27	=27	=27	=27	=27	=27	=27	=27	=27	=27	=27	=27	=27
2c\ 2A\	mag-	2cc/ 2e/	.	.	2A\	mag-	.	2c\	mag-	.	2e\	mag-	.	2cc\	mag-	.
4d\ 4G#X\	-nam	4bn/ 4e/	.	.	4G#X\	-nam	.	4d\	-nam	.	4e\	-nam	.	4bn\	-nam	.
4r	.	4r	.	.	4r	.	.	4r	.	.	4r	.	.	4r	.	.
!	!	!	!	!	!	!	!	!	!	!	!LO:LB:g=original	!	!	!	!	!
=28	=28	=28	=28	=28	=28	=28	=28	=28	=28	=28	=28	=28	=28	=28	=28	=28
*^	*	*^	*	*	*	*	*	*	*	*	*	*	*	*	*	*
1e/	2C\	glo-	1ee/	2a\	.	.	2C/	glo-	.	1e\	glo-	.	(2a\	glo-	.	(1ee\	glo-	.
.	2C#X\	.	.	2g\	.	.	2C#X/	.	.	.	.	.	2g\)	.	.	.	.	.
=29	=29	=29	=29	=29	=29	=29	=29	=29	=29	=29	=29	=29	=29	=29	=29	=29	=29	=29
!LO:TX:t=P:problem:poprawki korekorskie z 4e i 2.d na 2.d i 4f	!	!	!	!	!	!	!	!	!	!	!	!	!	!	!	!	!	!
2.d/	2D\	-ri-	4ee/	2f\	.	.	2D\	-ri-	.	(4e\	-ri-	.	2f\	-ri-	.	4ee\)	.	.
.	.	.	2ff/	.	.	.	.	.	.	2d\)	.	.	.	.	.	2ff\	-ri-	.
.	2F\	.	.	2a\	.	.	2F\	-am	.	.	.	.	2a\	-am	.	.	.	.
4f/	.	-am	4dd/	.	.	.	.	.	.	4f\	-am	.	.	.	.	4dd\	-am	.
*	*	*	*v	*v	*	*	*	*	*	*	*	*	*	*	*	*	*	*
=30	=30	=30	=30	=30	=30	=30	=30	=30	=30	=30	=30	=30	=30	=30	=30	=30	=30
2.e/	1E\	tu-	2cc/ 2a/	.	.	1E\	tu-	.	2.e\	tu-	.	(2a\	tu-	.	(2cc\	tu-	.
.	.	.	2bn/ 2g#X/	.	.	.	.	.	.	.	.	2g#X\)	.	.	2bn\)	.	.
4d/	.	.	.	.	.	.	.	.	4d\	.	.	.	.	.	.	.	.
!	!	!	!	!	!	!	!	!	!	!	!	!	!	!	!	!LO:LB:g=original	!
=31	=31	=31	=31	=31	=31	=31	=31	=31	=31	=31	=31	=31	=31	=31	=31	=31	=31
*	*	*	*^	*	*	*	*	*	*	*	*	*	*	*	*	*	*
4c/	4AA\	-am	4a/	4a\	.	.	4AA/	-am	.	4c\	-am	.	4a\	-am	.	4a\	-am	.
4r	4r	.	4r	4ryy	.	.	4r	.	.	4r	.	.	4r	.	.	4r	.	.
2r	2r	.	2r	2ryy	.	.	2r	.	.	2r	.	.	2r	.	.	2r	.	.
*	*	*	*v	*v	*	*	*	*	*	*	*	*	*	*	*	*	*	*
!	!	!	!	!	!	!LO:PB:g=original	!	!	!LO:PB:g=original	!	!	!	!	!	!	!	!
=32	=32	=32	=32	=32	=32	=32	=32	=32	=32	=32	=32	=32	=32	=32	=32	=32	=32
2e/	2.C\	Do-	2b-X/ 2g/	.	.	2.C/	Do-	.	2e\	Do-	.	2g\	Do-	.	2b-\	Do-	.
4e/	.	-mi-	4b-/ 4g/	.	.	.	.	.	4e\	-mi-	.	4g\	-mi-	.	4b-\	-mi-	.
4f/	4C\	-ne	4a/ 4f/	.	.	4C/	-mi-	.	4f\	-ne	.	4f\	-ne	.	4a\	-ne	.
=33	=33	=33	=33	=33	=33	=33	=33	=33	=33	=33	=33	=33	=33	=33	=33	=33	=33
*	*	*	*	*above	*	*	*	*	*	*	*	*	*	*	*	*	*
!	!	!	!LO:TX:t=P:problem:słowa nad pięciolinią	!	!	!	!	!	!	!	!	!	!	!	!	!	!
2c/	4C\	ne	2a/ 2f/	De-	.	4C/	-ne	.	2c\	De-	.	2f\	De-	.	2a\	De-	.
.	4C\	do-	.	.	.	4C/	do-	.	.	.	.	.	.	.	.	.	.
4c/	4BBn\	-mi-	4g/ 4e/	-us	.	4BBn/	-mi-	.	4c\	-us	.	4e\	-us	.	4g\	-us	.
4ryy	4C\	-ne	4r	.	.	4C/	-ne	.	4r	.	.	4r	.	.	4r	.	.
*v	*v	*	*	*	*	*	*	*	*	*	*	*	*	*	*	*	*
!	!	!	!	!	!	!	!	!	!	!	!	!LO:LB:g=original	!	!	!	!
=34	=34	=34	=34	=34	=34	=34	=34	=34	=34	=34	=34	=34	=34	=34	=34	=34
*	*	*^	*	*	*	*	*	*	*	*	*	*	*	*	*	*
4e\ 4C\	De-	4dd/	4b-\	.	.	4C/	De-	.	4e\	De-	.	4b-\	De-	.	4dd\	De-	.
4e\ 4C\	-us	4dd/	4b-\	.	.	4C/	-us	.	4e\	-us	.	4b-\	-us	.	4dd\	-us	.
4e\ 4C\	Rex	4dd/	4b-\	.	.	4C/	Rec	.	4e\	Rex	.	4b-\	Rex	.	4dd\	Rex	.
!	!	!	!	!	!	!LO:SIC:l:s=cae	!	!	!LO:SIC:l:s=cae	!	!	!LO:SIC:l:s=cae	!	!	!LO:SIC:l:s=cae	!	!
4f\ 4C\	ce-	4cc/	4a\	.	.	4C/	ce-	.	4f\	ce-	.	4a\	ce-	.	4cc\	ce-	.
*	*	*v	*v	*	*	*	*	*	*	*	*	*	*	*	*	*	*
=35	=35	=35	=35	=35	=35	=35	=35	=35	=35	=35	=35	=35	=35	=35	=35	=35
2f#X\ 2C\	-les-	2cc/ 2a/	.	.	2C/	-les-	.	2f#X\	-les-	.	2a\	-les-	.	2cc\	-les-	.
4g\ 4C\	-tis	4b-/ 4g/	.	.	4C/	-tis	.	4g\	-tis	.	4g\	-tis	.	4b-\	-tis	.
4r	.	4r	.	.	4r	.	.	4r	.	.	4r	.	.	4r	.	.
=36	=36	=36	=36	=36	=36	=36	=36	=36	=36	=36	=36	=36	=36	=36	=36	=36
*	*	*^	*	*	*	*	*	*	*	*	*	*	*	*	*	*
2e\ 2B-\	De-	2cc/	2.g\	.	.	2.B-\	De-	.	2.e\	De-	.	2.g\	De-	.	2.cc\	De-	.
4ryy	.	2cc/	.	.	.	.	.	.	.	.	.	.	.	.	.	-us	.
4e\ 4B-\	-us	.	4g\	.	.	4B-\	-us	.	4e\	-us	.	4g\	-us	.	4cc\	.	.
!	!	!	!	!	!	!	!	!	!	!	!	!	!	!	!LO:LB:g=original	!	!
=37	=37	=37	=37	=37	=37	=37	=37	=37	=37	=37	=37	=37	=37	=37	=37	=37	=37
2e\ 2A\	Pa-	2cc#X/	2g\	.	.	2A\	Pa-	.	2e\	Pa-	.	2g\	Pa-	.	2cc#X\	Pa-	.
4d\ 4B-\	-ter	4dd/	4f\	.	.	4B-\	-ter	.	4d\	-ter	.	4f\	-ter	.	4dd\	-ter	.
4d\ 4BB-\	o-	4b-/	4g\	.	.	4BB-/	o-	.	4d\	o-	.	4g\	o-	.	4b-\	o-	.
!	!	!	!	!	!	!LO:LB:g=original	!	!	!LO:LB:g=original	!	!	!	!	!	!	!	!
=38	=38	=38	=38	=38	=38	=38	=38	=38	=38	=38	=38	=38	=38	=38	=38	=38	=38
2c\ 2C\	-mni-	2a/	2f\	.	.	2C/	-mni-	.	2c\	-mni-	.	2f\	-mni-	.	2a\	-mni-	.
2Bn\ 2D\	-po-	2g/	2f\	.	.	2D/	-po-	.	2Bn\	-po-	.	2f\	-po-	.	2g\	-po-	.
=39	=39	=39	=39	=39	=39	=39	=39	=39	=39	=39	=39	=39	=39	=39	=39	=39	=39
*^	*	*	*	*	*	*	*	*	*	*	*	*	*	*	*	*	*
4c/	4C\	-tens	4g/	4e\	.	.	4C/	-tens	.	4c\	-tens	.	4e\	-tens	.	4g\	-tens	.
4ryy	4C\	Do-	4r	4ryy	.	.	4C/	Do-	.	4r	.	.	4r	.	.	4r	.	.
2ryy	4BBn\	-mi-	2r	2ryy	.	.	4BBn/	-mi-	.	2r	.	.	2r	.	.	2r	.	.
.	4C\	-ne	.	.	.	.	4C/	-ne	.	.	.	.	.	.	.	.	.	.
*	*	*	*v	*v	*	*	*	*	*	*	*	*	*	*	*	*	*	*
!	!	!	!	!	!	!	!	!	!	!	!	!LO:LB:g=original	!	!	!	!	!
=40	=40	=40	=40	=40	=40	=40	=40	=40	=40	=40	=40	=40	=40	=40	=40	=40	=40
2e/ 2C/	2.ryy	.	2b-/ 2g/	Do-	.	2C/	Fi-	.	2e\	Do-	.	2g\	Do-	.	2b-\	Do-	.
4e/ 4C/	.	.	4b-/ 4g/	-mi-	.	4C/	-li	.	4e\	-mi-	.	4g\	-mi-	.	4b-\	-mi-	.
4f/	4r	.	4a/ 4f/	-ne	.	4r	.	.	4f\	-ne	.	4f\	-ne	.	4a\	-ne	.
=41	=41	=41	=41	=41	=41	=41	=41	=41	=41	=41	=41	=41	=41	=41	=41	=41	=41
2c/	4r	.	2a/ 2f/	Fi-	.	4r	.	.	2c\	Fi-	.	2f\	Fi-	.	2a\	Fi-	.
.	4C\	Do-	.	.	.	4C/	Do-	.	.	.	.	.	.	.	.	.	.
4c/	4BBn\	-mi-	4g/ 4e/	-li	.	4BBn/	-mi-	.	4c\	-li	.	4e\	-li	.	4g\	-li	.
4r	4C\	-ne	4r	.	.	4C/	-ne	.	4r	.	.	4r	.	.	4r	.	.
=42	=42	=42	=42	=42	=42	=42	=42	=42	=42	=42	=42	=42	=42	=42	=42	=42	=42
*	*	*	*^	*	*	*	*	*	*	*	*	*	*	*	*	*	*
4e\	8C\	Fi-	4dd/	4b-\	.	.	4C/	Fi-	.	4e\	Fi-	.	4b-\	Fi-	.	4dd\	Fi-	.
.	8ryy	.	.	.	.	.	.	.	.	.	.	.	.	.	.	.	.	.
4e\	8C\	-li	4dd/	4b-\	.	.	4C/	-li	.	4e\	-li	.	4b-\	-li	.	4dd\	-li	.
.	8ryy	.	.	.	.	.	.	.	.	.	.	.	.	.	.	.	.	.
4e\	8C\	u-	4dd/	4b-\	.	.	4C/	u-	.	4e\	u-	.	4b-\	u-	.	4dd\	u-	.
.	8ryy	.	.	.	.	.	.	.	.	.	.	.	.	.	.	.	.	.
4f\	8C\	-ni-	4cc/	4a\	.	.	4C/	-ni-	.	4f\	-ni-	.	4a\	-ni-	.	4cc\	-ni-	.
.	8ryy	.	.	.	.	.	.	.	.	.	.	.	.	.	.	.	.	.
*	*	*	*v	*v	*	*	*	*	*	*	*	*	*	*	*	*	*	*
!LO:LB:g=original	!	!	!	!	!	!	!	!	!	!	!	!	!	!	!LO:LB:g=original	!	!
=43	=43	=43	=43	=43	=43	=43	=43	=43	=43	=43	=43	=43	=43	=43	=43	=43	=43
!	!	!	!	!	!	!	!	!	!LO:SIC:l:s=ge	!	!	!	!	!	!	!	!
4.f#X/	4.C\	-ge-	4.cc\ 4.a\	.	.	4.C/	-ge-	.	4.f#X\	-ie-	.	4.a\	-ge-	.	4.cc\	-ge-	.
8g/	8C\	-ni-	8b-\ 8g\	.	.	8C/	-ni-	.	8g\	-ni-	.	8g\	-ni-	.	8b-\	-ni-	.
!	!	!	!	!	!	!LO:SIC:l:s=te	!	!	!	!	!	!	!	!	!	!	!
4g/	4C\	-te	4b-\ 4g\	.	.	4C/	-tum	.	4g\	-te	.	4g\	-te	.	4b-\	-te	.
4r	4r	.	4r	.	.	4r	.	.	4r	.	.	4r	.	.	4r	.	.
!	!	!	!	!	!	!LO:LB:g=original	!	!	!LO:LB:g=original	!	!	!	!	!	!	!	!
=44	=44	=44	=44	=44	=44	=44	=44	=44	=44	=44	=44	=44	=44	=44	=44	=44	=44
2.g/	2.C#X\	Je-	2.ee\ 2.a\	.	.	2.C#X/	Je-	.	2.g\	Je-	.	2.a\	Je-	.	2.ee\	Je-	.
4g/	4C#\	-su	4ee\ 4a\	.	.	4C#/	-su	.	4g\	-su	.	4a\	-su	.	4ee\	-su	.
!	!	!	!	!	!	!	!	!	!	!	!	!LO:LB:g=original	!	!	!	!	!
=45	=45	=45	=45	=45	=45	=45	=45	=45	=45	=45	=45	=45	=45	=45	=45	=45	=45
*	*	*	*^	*	*	*	*	*	*	*	*	*	*	*	*	*	*
2f#X/	2D\	Chris-	4ee/	2a\	.	.	2D/	Chris-	.	2f#X\	Chris-	.	2a\	Chris-	.	(4ee\	Chris-	.
.	.	.	4a/	.	.	.	.	.	.	.	.	.	.	.	.	4a\)	.	.
2fn/	(>4D\	-te	2dd/	2a-X\	.	.	(4D/	-te	.	2fn\	-te	.	2a-X\	-te	.	2dd\	-te	.
.	4Cn\)	.	.	.	.	.	4Cn/)	.	.	.	.	.	.	.	.	.	.	.
*	*	*	*v	*v	*	*	*	*	*	*	*	*	*	*	*	*	*	*
=46	=46	=46	=46	=46	=46	=46	=46	=46	=46	=46	=46	=46	=46	=46	=46	=46	=46
2f/	2BBn\	Do-	2dd/ 2a-X/	.	.	2BBn/	Do-	.	2f\	Do-	.	2a-X\	Do-	.	2dd\	Do-	.
4f/	4BB\	-mi-	4dd\ 4g\	.	.	4BB/	-mi-	.	4f\	-mi-	.	4g\	-mi-	.	4dd\	-mi-	.
4f/	4BB\	-ne	4dd\ 4g\	.	.	4BB/	-ne	.	4f\	-ne	.	4g\	-ne	.	4dd\	-ne	.
=47	=47	=47	=47	=47	=47	=47	=47	=47	=47	=47	=47	=47	=47	=47	=47	=47	=47
*	*	*	*^	*	*	*	*	*	*	*	*	*	*	*	*	*	*
4f/	4BBn\	De-	4dd/	2g\	.	.	(4BBn/	De-	.	(4f\	De-	.	2g\	De-	.	(4dd\	De-	.
4e/	4C\	.	4g/	.	.	.	4C/)	.	.	4e\)	.	.	.	.	.	4g\)	.	.
2e/	2C\	-us	2cc/	2g\	.	.	2C/	-us	.	2e\	-us	.	2g\	-us	.	2cc\	-us	.
*v	*v	*	*	*	*	*	*	*	*	*	*	*	*	*	*	*	*	*
*	*	*v	*v	*	*	*	*	*	*	*	*	*	*	*	*	*	*
=48	=48	=48	=48	=48	=48	=48	=48	=48	=48	=48	=48	=48	=48	=48	=48	=48
!	!	!	!	!	!	!	!LO:DY:rj	!	!	!	!	!	!	!	!	!LO:DY:rj
2c\ 2A\	A-	2.a/ 2.e/	.	.	2.A\	A-	f	2.c\	A-	f	2.e\	A-	.	2.a\	A-	f
4r	.	.	.	.	.	.	.	.	.	.	.	.	.	.	.	.
4c\ 4A\	-gnus	4a/ 4e/	.	.	4A\	-gnus	.	4c\	-gnus	.	4e\	-gnus	.	4a\	-gnus	.
=49	=49	=49	=49	=49	=49	=49	=49	=49	=49	=49	=49	=49	=49	=49	=49	=49
!	!	!	!	!	!	!	!	!	!	!	!	!	!	!LO:TX:t=P:problem:w taktach 49-54 teskt podpisany ołówkiem	!	!
4d\ 4G#X\	De-	4bn/ 4f/	.	.	4G#X\	De-	.	4d\	De-	.	4f\	De-	.	4bn\	.	.
4c\ 4A\	-i	4a/ 4e/	.	.	4A\	-i	.	4c\	-i	.	4e\	-i	.	4a\	.	.
2r	.	2r	.	.	2r	.	.	2r	.	.	2r	.	.	2r	.	.
!	!	!	!	!	!	!	!	!LO:LB:g=original	!	!	!	!	!	!	!	!
=50	=50	=50	=50	=50	=50	=50	=50	=50	=50	=50	=50	=50	=50	=50	=50	=50
*^	*	*	*	*	*	*	*	*	*	*	*	*	*	*	*	*
!LO:TX:a:t=1	!	!	!LO:TX:a:t=1	!	!	!LO:TX:a:t=1	!	!	!LO:TX:a:t=1	!	!	!LO:TX:a:t=1	!	!	!LO:TX:a:t=1	!	!
1r	1r	.	1r	.	p	1r	.	.	1r	.	p	1r	.	.	1r	.	.
*v	*v	*	*	*	*	*	*	*	*	*	*	*	*	*	*	*	*
!	!	!	!	!	!	!LO:LB:g=original	!	!	!	!	!	!LO:LB:g=original	!	!	!	!
=51	=51	=51	=51	=51	=51	=51	=51	=51	=51	=51	=51	=51	=51	=51	=51	=51
*	*	*^	*	*	*	*	*	*	*	*	*	*	*	*	*	*
!	!	!	!	!	!	!	!	!LO:DY:rj	!	!	!	!	!	!LO:DY:rj	!	!	!LO:DY:rj
2c\ 2AA\	Fi-	2cc/ 2f/	2ryy	.	.	2AA/	Fi-	p	2c\	Fi-	p	2f\	Fi-	p	2cc\	.	p
4c\ 4AA\	-li-	4f/	4f\	.	.	4AA/	-li-	.	4c\	-li-	.	4f\	-li-	.	4f\	.	.
4d\ 4BB-\	-us	4g/	4f\	.	.	4BB-/	-us	.	4d\	-us	.	4f\	-us	.	4g\	.	.
=52	=52	=52	=52	=52	=52	=52	=52	=52	=52	=52	=52	=52	=52	=52	=52	=52	=52
*^	*	*	*	*	*	*	*	*	*	*	*	*	*	*	*	*	*
1c/	1C\	Pa-	1a/	1f\	.	.	[1C/	Pa-	.	(1c\	Pa-	.	1f\	Pa-	.	(1a\	.	.
!LO:LB:g=original	!	!	!	!	!	!	!	!	!	!	!	!	!	!	!	!	!	!
=53	=53	=53	=53	=53	=53	=53	=53	=53	=53	=53	=53	=53	=53	=53	=53	=53	=53	=53
2c\	1C\	.	2.a/	1e\	.	.	1C/]	.	.	2c\)	.	.	1e\	.	.	2.a\)	.	.
2B-\	.	.	.	.	.	.	.	.	.	2B-\	.	.	.	.	.	.	.	.
.	.	.	4g/	.	.	.	.	.	.	.	.	.	.	.	.	4g\	.	.
*	*	*	*v	*v	*	*	*	*	*	*	*	*	*	*	*	*	*	*
=54	=54	=54	=54	=54	=54	=54	=54	=54	=54	=54	=54	=54	=54	=54	=54	=54	=54
2A\ 2F\	2.ryy	-tris	2f/ 2c/	.	.	2F\	-tris	.	2A\	-tris	.	2c\	-tris	.	2f/	.	.
4r;	.	.	4r;	.	.	4r;	.	.	4r;	.	.	4r;	.	.	4r;	.	.
!	!	!	!	!	!	!	!	!	!LO:TX:a:t=solo	!	!	!	!	!	!	!	!
4A/	4r	Qui	4r	.	.	4r	.	.	4A\	Qui	.	4r	.	.	4r	.	.
!	!	!	!	!	!	!	!	!	!	!	!	!	!	!	!LO:TX:a:t=andante	!	!
!	!	!	!	!	!	!	!	!	!	!	!	!	!	!	!LO:LB:g=original	!	!
=55||	=55||	=55||	=55||	=55||	=55||	=55||	=55||	=55||	=55||	=55||	=55||	=55||	=55||	=55||	=55||	=55||	=55||
!	!	!	!	!	!	!LO:TX:rj:b:t=andante	!	!	!	!	!	!LO:TX:a:t=andante	!	!	!	!	!
!LO:SIC:o:S:v:=Andante dopisane ołówkiem	!	!	!LO:TX:a:t=1	!	!	!LO:TX:a:t=1	!	!	!LO:TX:a:t=andante	!	!	!LO:TX:b:t=1	!	!	!LO:TX:a:t=1	!	!
4A/	1r	tol-	1r	.	.	1r	.	.	4A\	tol-	.	1r	.	.	1r	.	.
16qqB-/LL	.	.	.	.	.	.	.	.	.	.	.	.	.	.	.	.	.
16qqA/JJ	.	.	.	.	.	.	.	.	.	.	.	.	.	.	.	.	.
!LO:TX:t=P:problem:poprawki korekorskie z 8.A na 8.G#	!	!	!	!	!	!	!	!	!	!	!	!	!	!	!	!	!
(8.G#X/L	.	-lis	.	.	.	.	.	.	8.A\	-lis	.	.	.	.	.	.	.
16A/Jk)	.	pec-	.	.	.	.	.	.	16A\	pec-	.	.	.	.	.	.	.
4f/	.	-ca-	.	.	.	.	.	.	4f\	-ca-	.	.	.	.	.	.	.
4e/	.	-ta	.	.	.	.	.	.	4e\	-ta	.	.	.	.	.	.	.
!	!	!	!	!	!	!	!	!	!LO:LB:g=original	!	!	!	!	!	!	!	!
=56	=56	=56	=56	=56	=56	=56	=56	=56	=56	=56	=56	=56	=56	=56	=56	=56	=56
!	!	!	!	!	!	!	!	!	!	!	!	!	!	!LO:DY:rj	!	!	!
*	*	*^	*	*	*	*	*	*	*	*	*	*	*	*	*	*	*
2d/	4r	mun-	.	4r	.	.	4r	.	.	2d\	mun-	.	4r	.	p	4r	.	p
!	!	!	!	!	!	!	!	!	!	!	!	!	!LO:TX:t=P:problem:w t. 56 wszystkie wysokości nut poprawiono z A na f	!	!	!LO:TX:t=P:problem:w t. 56 wszystkie wysokości nut poprawiono ołówkiem z f na a	!	!
.	8D\L	.	mi-	8a/L 8f/	.	.	8D\	mi-	.	.	.	.	8A/	mi-	.	8f/	mi-	.
.	8D\J	.	-se-	8a/J 8f/	.	.	8D\	-se-	.	.	.	.	8A/	-se-	.	8f/	-se-	.
8A/L	4D\	-di	-re-	4a/ 4f/	.	.	4D\	-re-	.	4A\	-di	.	4A/	-re-	.	4f/	-re-	.
8r	.	.	.	.	.	.	.	.	.	.	.	.	.	.	.	.	.	.
8r	4D\	.	.	4a/ 4f/	.	.	4D\	-re	.	8r	.	.	4A/	-re	.	4f/	-re	.
8A/J	.	Qui	-re	.	.	.	.	.	.	8A\	Qui	.	.	.	.	.	.	.
!	!	!	!	!	!	!	!	!	!	!	!	!	!LO:PB:g=original	!	!	!	!	!
=57	=57	=57	=57	=57	=57	=57	=57	=57	=57	=57	=57	=57	=57	=57	=57	=57	=57	=57
!	!	!	!	!	!	!	!	!	!	!	!	!	!LO:TX:t=P:problem:w t. 57 wszystkie wysokości nut poprawiono z A na e	!	!	!	!	!
4A/	4C#X\	tol-	no-	4g/ 4e/	.	.	4C#X/	no-	.	4A\	tol-	.	4A\	no-	.	4g/	no-	.
16qqB-/LL	.	.	.	.	.	.	.	.	.	16qqB-/LL	.	.	.	.	.	.	.	.
16qqA/JJ	.	.	.	.	.	.	.	.	.	16qqA/JJ	.	.	.	.	.	.	.	.
8.G#X/L	4C#\	-lis	-bis	4g/ 4e/	.	.	4C#/	-bis	.	8.G#X/	-lis	.	4A\	-bis	.	4g/	-bis	.
16A/Jk	.	pec-	.	.	.	.	.	.	.	16A/	pec-	.	.	.	.	.	.	.
4.g/	2r	-ca-	.	2r	.	.	2r	.	.	4g\	-ca-	.	2r	.	.	2r	.	.
.	.	.	.	.	.	.	.	.	.	4f\	-ta	.	.	.	.	.	.	.
8f/	.	-ta	.	.	.	.	.	.	.	.	.	.	.	.	.	.	.	.
!	!	!	!	!	!	!	!LO:LB:g=original	!	!	!	!	!	!	!	!	!	!	!
=58	=58	=58	=58	=58	=58	=58	=58	=58	=58	=58	=58	=58	=58	=58	=58	=58	=58	=58
4e/	8C#X\L	mun-	mi-	8g/L 8e/	.	.	8C#X/	mi-	.	4e\	mun-	.	8e\	mi-	.	8g/	mi-	.
.	8C#\	.	-se-	8g/ 8e/	.	.	8C#/	-se-	.	.	.	.	8e\	-se-	.	8g/	-se-	.
4A/	8C#\	-di	-re-	8g/ 8e/	.	.	8C#/	-re-	.	4A\	-di	.	8e\	-re-	.	8g/	-re-	.
.	8C#\J	.	-re	8g/J 8e/	.	.	8C#/	-re	.	.	.	.	8e\	-re	.	8g/	-re	.
2r	4C#\	.	no-	4g/ 4e/	.	.	4C#/	no-	.	2r	.	.	4e\	no-	.	4g\	no-	.
.	4C#\	.	-bis	4a/ 4e/	.	.	4C#/	-bis	.	.	.	.	4e\	-bis	.	4a\	-bis	.
*	*	*v	*v	*	*	*	*	*	*	*	*	*	*	*	*	*	*	*
*v	*v	*	*	*	*	*	*	*	*	*	*	*	*	*	*	*	*
=59	=59	=59	=59	=59	=59	=59	=59	=59	=59	=59	=59	=59	=59	=59	=59	=59
4.A\ 4.D\	sus-	4.ff/ 4.f/	.	.	4.D\	sus-	.	4.A\	sus-	.	4.f\	sus-	.	4.ff\	sus-	.
8A\ 8D\	-ci-	8ff/ 8f/	.	.	8D\	-ci-	.	8A\	-ci-	.	8f\	-ci-	.	8ff\	-ci-	.
2c#X\ 2A\	-pe	2ee/ 2g/	.	.	2A\	-pe	.	2c#X\	-pe	.	2g\	-pe	.	2ee\	-pe	.
!	!	!	!	!	!	!	!	!	!	!	!	!	!	!LO:LPB:g=original	!	!
=60	=60	=60	=60	=60	=60	=60	=60	=60	=60	=60	=60	=60	=60	=60	=60	=60
*^	*	*	*	*	*	*	*	*	*	*	*	*	*	*	*	*
4A\ 4D\	2ryy	de-	4dd/ 4f/	.	.	4D\	de-	.	4A\	de-	.	4f\	de-	.	4dd\	de-	.
4A\ 4D\	.	-pre-	4dd/ 4f/	.	.	4D\	-pre-	.	4A\	-pre-	.	4f\	-pre-	.	4dd\	-pre-	.
4G/	4G\	-ca-	4cc/ 4a/	.	.	4G\	-ca-	.	4G\	-ca-	.	4a\	-ca-	.	4cc\	-ca-	.
4d\ 4G\	4ryy	-ti-	4b-/ 4g/	.	.	4G\	-ti-	.	4d\	-ti-	.	4g\	-ti-	.	4b-\	-ti-	.
*v	*v	*	*	*	*	*	*	*	*	*	*	*	*	*	*	*	*
!LO:PB:g=original	!	!	!	!	!	!	!	!LO:LB:g=original	!	!	!	!	!	!	!	!
=61	=61	=61	=61	=61	=61	=61	=61	=61	=61	=61	=61	=61	=61	=61	=61	=61
4d\ 4A\	-o-	4a/ 4f/	.	.	4A\	-o-	.	4d\	-o-	.	4f\	-o-	.	4a\	-o-	.
4d\ 4A\	-nem	4a/ 4f/	.	.	4A\	-nem	.	4d\	-nem	.	4f\	-nem	.	4a\	-nem	.
*	*	*^	*	*	*	*	*	*	*	*	*	*	*	*	*	*
2d\ 2B-\	no-	8a/L	2e\	.	.	(2B-\	no-	.	2d\	no-	.	2e\	no-	.	(8a\L	no-	.
.	.	8g/	.	.	.	.	.	.	.	.	.	.	.	.	8g\	.	.
.	.	8f/	.	.	.	.	.	.	.	.	.	.	.	.	8f\	.	.
.	.	8g/J	.	.	.	.	.	.	.	.	.	.	.	.	8g\J)	.	.
!	!	!	!	!	!	!	!	!	!	!	!	!LO:LB:g=original	!	!	!	!	!
=62	=62	=62	=62	=62	=62	=62	=62	=62	=62	=62	=62	=62	=62	=62	=62	=62	=62
*^	*	*	*	*	*	*	*	*	*	*	*	*	*	*	*	*	*
4c#X/	2A\	.	2a/	4e\	.	.	2A\	.	.	(4c#X\	.	.	(4e\	.	.	2a\	-stram	.
4e/	.	.	.	4g\	.	.	.	.	.	4e\	.	.	4g\	.	.	.	.	.
4d/	2AA\	.	4r	4f\	.	.	2AA/	.	.	4d\	.	.	4f\	.	.	4r	.	.
*	*	*	*	*	*above	*	*	*	*	*	*	*	*	*	*	*	*	*
!	!	!	!LO:TX:t=P:problem:słowa nad pięciolinią	!	!	!	!	!	!	!	!	!	!	!	!	!	!	!
4c#/	.	.	4a/	4e\	Qui	.	.	.	.	4c#\	.	.	4e\	.	.	4a\	Qui	.
*v	*v	*	*	*	*	*	*	*	*	*	*	*	*	*	*	*	*	*
=63	=63	=63	=63	=63	=63	=63	=63	=63	=63	=63	=63	=63	=63	=63	=63	=63	=63
4d\ 4D\	-stram	4a/	4f\	se-	.	4D\)	-stram	.	4d\)	-stram	.	4f\)	-stram	.	4a\	se-	.
4r	.	8a/L	4r	-des	.	4r	.	.	4r	.	.	4r	.	.	8a\	-des	.
.	.	8a/J	.	ad	.	.	.	.	.	.	.	.	.	.	8a\	ad	.
2r	.	4ff/	2r	dex-	.	2r	.	.	2r	.	.	2r	.	.	4ff\	dex-	.
.	.	8ff/L	.	-te-	.	.	.	.	.	.	.	.	.	.	8ff\	-te-	.
.	.	8ee/J	.	-ram	.	.	.	.	.	.	.	.	.	.	8ee\	-ram	.
!	!	!	!	!	!	!LO:LB:g=original	!	!	!	!	!	!	!	!	!	!	!
=64	=64	=64	=64	=64	=64	=64	=64	=64	=64	=64	=64	=64	=64	=64	=64	=64	=64
4r	.	4dd/	4r	pat-	.	4r	.	.	4r	.	.	4r	.	.	4dd\	pa-	.
8A\L 8D\	mi-	4a/	8f\L	-ris	.	8D\	mi-	.	8A\	mi-	.	8f\	mi-	.	4a\	-tris	.
8A\J 8D\	-se-	.	8f\J	.	.	8D\	-se-	.	8A\	-se-	.	8f\	-se-	.	.	.	.
4A\ 4D\	-re-	4r	4f\	.	.	4D\	-re-	.	4A\	-re-	.	4f\	-re-	.	4r	.	.
4A\ 4D\	-re	4a/	4f\	Qui	.	4D\	-re	.	4A\	-re	.	4f\	-re	.	4a\	Qui	.
!	!	!	!	!	!	!	!	!	!	!	!	!	!	!	!LO:LB:g=original	!	!
=65	=65	=65	=65	=65	=65	=65	=65	=65	=65	=65	=65	=65	=65	=65	=65	=65	=65
4A\ 4C#X\	no-	4a/	4g\	se-	.	4C#X/	no-	.	4A\	no-	.	4g\	no-	.	4a\	se-	.
4A\ 4C#\	-bis	8a/L	4g\	-des	.	4C#/	-bis	.	4A\	-bis	.	4g\	-bis	.	8a\	-des	.
.	.	8a/J	.	ad	.	.	.	.	.	.	.	.	.	.	8a\	ad	.
2r	.	4gg/	2r	dex-	.	2r	.	.	2r	.	.	2r	.	.	4gg\	dex-	.
.	.	4ff/	.	-teram	.	.	.	.	.	.	.	.	.	.	8gg\	-te-	.
!	!	!LO:SIC:o=4ff	!	!	!	!	!	!	!	!	!	!	!	!	!	!	!
.	.	.	.	.	.	.	.	.	.	.	.	.	.	.	8ff\	-ram	.
!	!	!	!	!	!	!	!	!	!LO:LB:g=original	!	!	!	!	!	!	!	!
=66	=66	=66	=66	=66	=66	=66	=66	=66	=66	=66	=66	=66	=66	=66	=66	=66	=66
!LO:TX:t=P:problem:w tym takcie słowa nad pięciolinią	!	!	!	!	!	!	!	!	!	!	!	!	!	!	!	!	!
8A\L 8C#X\	mi-	4ee/	8g\L	Pat-	.	8C#X/	mi-	.	8A\	mi-	.	8g\	mi-	.	4ee\	pa-	.
8A\ 8C#\	-se-	.	8g\	.	.	8C#/	-se-	.	8A\	-se-	.	8g\	-se-	.	.	.	.
8A\ 8C#\	-re-	4ee/	8g\	-ris	.	8C#/	-re-	.	8A\	-re-	.	8g\	-re-	.	4ee\	-tris	.
8A\J 8C#\	-re	.	8g\J	.	.	8C#/	-re	.	8A\	-re	.	8g\	-re	.	.	.	.
4A\ 4C#\	no-	2r	4g\	.	.	4C#/	no-	.	4A\	no-	.	4g\	no-	.	2r	.	.
4A\ 4C#\	-bis	.	4g\	.	.	4C#/	-bis	.	4A\	-bis	.	4g\	-bis	.	.	.	.
!	!	!	!	!	!	!	!	!	!	!	!	!LO:LB:g=original	!	!	!	!	!
=67	=67	=67	=67	=67	=67	=67	=67	=67	=67	=67	=67	=67	=67	=67	=67	=67	=67
2A\ 2D\	mi-	2ff/	2f\	.	.	2D\	mi-	.	2A\	mi-	.	2f\	mi-	.	2ff\	mi-	.
2B-X\ 2F\	-se-	2dd/	2f\	.	.	2F\	-se-	.	2B-X\	-se-	.	2f\	-se-	.	2dd\	-se-	.
=68	=68	=68	=68	=68	=68	=68	=68	=68	=68	=68	=68	=68	=68	=68	=68	=68	=68
!	!	!LO:TX:t=P:problem:poprawki korekorskie skreślone 2b-2d i 2g2b-	!	!	!	!	!	!	!LO:SIC:s=2B-	!	!	!	!	!	!	!	!
2B-\ 2G\	-re-	1ryy	2e\	.	.	2G\	-re-	.	2B-\	-re-	.	2e\	-re-	.	2b-\	-re-	.
2d\ 2B-\	-re	.	2e\	.	.	2B-\	-re	.	2d\	-re	.	2e\	-re	.	2g\	-re	.
!LO:LB:g=original	!	!	!	!	!	!	!	!	!	!	!	!	!	!	!	!	!
=69	=69	=69	=69	=69	=69	=69	=69	=69	=69	=69	=69	=69	=69	=69	=69	=69	=69
4d\ 4A\	mi-	[1a/	4f\	.	.	4A\	mi-	.	4d\	mi-	.	4f\	mi-	.	[1a\	no-	.
4d\ 4A\	-se-	.	4f\	.	.	4A\	-se-	.	4d\	-se-	.	4f\	-se-	.	.	.	.
4d\ 4A\	-re-	.	4f\	.	.	4A\	-re-	.	4d\	-re-	.	4f\	-re-	.	.	.	.
4d\ 4A\	-re	.	4f\	.	.	4A\	-re	.	4d\	-re	.	4f\	-re	.	.	.	.
!	!	!	!	!	!	!LO:LB:g=original	!	!	!	!	!	!	!	!	!	!	!
=70	=70	=70	=70	=70	=70	=70	=70	=70	=70	=70	=70	=70	=70	=70	=70	=70	=70
2d\ 2A\	no-	1a/]	1e\	.	.	(2A\	no-	.	(2d\	no-	.	1e\	no-	.	1a\]	.	.
2c#X\ 2AA\	.	.	.	.	.	2AA/)	.	.	2c#X\)	.	.	.	.	.	.	.	.
!	!	!	!	!	!	!	!	!	!LO:LB:g=original	!	!	!	!	!	!LO:LB:g=original	!	!
=71	=71	=71	=71	=71	=71	=71	=71	=71	=71	=71	=71	=71	=71	=71	=71	=71	=71
4A\ 4D\	-bis	4d/	4f\	.	.	4D\	-bis	.	4A\	-bis	.	4f\	-bis	.	4d/	-bis	.
8A\L 8D\	mi-	4r	8f\L	.	.	8D\	mi-	.	8A\	mi-	.	8f\	mi-	.	4r	.	.
8A\J 8D\	-se-	.	8f\J	.	.	8D\	-se-	.	8A\	-se-	.	8f\	-se-	.	.	.	.
4A\ 4D\	-re-	2r	4f\	.	.	4D\	-re-	.	4A\	-re-	.	4f\	-re-	.	2r	.	.
4Bn\ 4D\	-re	.	4f\	.	.	4D\	-re	.	4Bn\	-re	.	4f\	-re	.	.	.	.
=72	=72	=72	=72	=72	=72	=72	=72	=72	=72	=72	=72	=72	=72	=72	=72	=72	=72
4c\ 4C\	no-	4r	4e\	.	.	4C/	no-	.	4c\	no-	.	4e\	no-	.	4r	.	.
4G\ 4C\	-bis	8b-/L	8e\L	.	.	4C/	-bis	.	4G\	-bis	.	4e\	-bis	.	8b-\	mi-	.
.	.	8b-/J	8e\J	.	.	.	.	.	.	.	.	.	.	.	8b-\	-se-	.
!	!	!LO:TX:t=e	!	!	!	!	!	!	!	!	!	!	!	!	!	!	!
4G\ 4C\	mi-	4b-/	4e\	.	.	4C/	mi-	.	4G\	mi-	.	4e\	mi-	.	4b-\	-re-	.
4A\ 4C\	-se-	4a/	4f\	.	.	4C/	-se-	.	4A\	-se-	.	4f\	-se-	.	4a\	-re	.
!	!	!	!	!	!	!	!	!	!	!	!	!LO:LB:g=original	!	!	!	!	!
=73	=73	=73	=73	=73	=73	=73	=73	=73	=73	=73	=73	=73	=73	=73	=73	=73	=73
4B-\ 4C\	-re-	1g/	4f\	.	.	4C/	-re-	.	4B-\	-re-	.	4f\	-re-	.	1g\	no-	.
4B-\ 4C\	-re	.	8e\L	.	.	4C/	-re	.	4B-\	-re	.	(8e\L	-re	.	.	.	.
.	.	.	8d\J	.	.	.	.	.	.	.	.	8d\J)	.	.	.	.	.
2B-\ 2C\	no-	.	2e\	.	.	2C/	no-	.	2B-\	no-	.	2e\	no-	.	.	.	.
=74	=74	=74	=74	=74	=74	=74	=74	=74	=74	=74	=74	=74	=74	=74	=74	=74	=74
4B-\ 4C\	-bis	4g/	4e\	.	.	4C/	-bis	.	4B-\	-bis	.	4e\	-bis	.	4g\	-bis	.
4r	.	4r	4ryy	.	.	4r	.	.	4r	.	.	4r	.	.	4r	.	.
2r	.	2r	2ryy	.	.	2r	.	.	2r	.	.	2r	.	.	2r	.	.
*	*	*v	*v	*	*	*	*	*	*	*	*	*	*	*	*	*	*
!	!	!	!	!	!	!	!	!LO:TX:a:t=Quoniam	!	!	!	!	!	!	!	!
!	!	!	!	!	!	!	!	!LO:LB:g=original	!	!	!	!	!	!	!	!
=75||	=75||	=75||	=75||	=75||	=75||	=75||	=75||	=75||	=75||	=75||	=75||	=75||	=75||	=75||	=75||	=75||
*^	*	*	*	*	*	*	*	*	*	*	*	*	*	*	*	*
!	!	!	!LO:TX:a:t=tempo Io	!	!	!	!LO:DY:rj	!	!LO:TX:a:t=Tempo io	!	!LO:DY:rj	!LO:TX:a:t=Tempo Io	!	!LO:DY:rj	!LO:TX:a:t=Tempo Io	!	!LO:DY:rj
8F/L	8F\L	Quo-	8f/L	.	.	8F\	Quo-	f	8F/	Quo-	f	8f\	Quo-	f	8f/	Quo-	f
8F/	8F\	-ni-	8f/	.	.	8F\	-ni-	.	8F/	-ni-	.	8f\	-ni-	.	8f/	-ni-	.
8F/	8F\	-am	8f/	.	.	8F\	-am	.	8F/	-am	.	8f\	-am	.	8f/	-am	.
8F/J	8F\J	tu	8f/J	.	.	8F\	tu	.	8F/	tu	.	8f\	tu	.	8f/	tu	.
4F/	4F\	so-	4f/	.	.	4F\	so-	.	4F/	so-	.	4f\	so-	.	4f/	so-	.
4F/	4F\	-lus	4f/	.	.	4F\	-lus	.	4F/	-lus	.	4f\	-lus	.	4f/	-lus	.
!	!	!	!	!	!	!	!	!	!	!	!	!	!	!	!LO:LB:g=original	!	!
!	!	!	!	!	!	!LO:LB:g=original	!	!	!	!	!	!	!	!	!	!	!
=76	=76	=76	=76	=76	=76	=76	=76	=76	=76	=76	=76	=76	=76	=76	=76	=76	=76
*	*	*	*^	*	*	*	*	*	*	*	*	*	*	*	*	*	*
(4.d/	2F\	San-	4.b-/	2f\	.	.	2F\	San-	.	(4.d\	San-	.	2f\	San-	.	(4.b-\	San-	.
8c/)	.	.	8a/	.	.	.	.	.	.	8c\)	.	.	.	.	.	8a\)	.	.
4c/	4F\	-ctus	4a/	4f\	.	.	4F\	-ctus	.	4c\	-ctus	.	4f\	-ctus	.	4a\	-ctus	.
4r	4ryy	.	4r	4ryy	.	.	4r	.	.	4r	.	.	4r	.	.	4r	.	.
*v	*v	*	*	*	*	*	*	*	*	*	*	*	*	*	*	*	*	*
*	*	*v	*v	*	*	*	*	*	*	*	*	*	*	*	*	*	*
!LO:LB:g=original	!	!	!	!	!	!	!	!	!	!	!	!	!	!	!	!
=77	=77	=77	=77	=77	=77	=77	=77	=77	=77	=77	=77	=77	=77	=77	=77	=77
4r	.	4r	.	.	4r	.	.	4r	.	.	4r	.	.	4r	.	.
4A\ 4F\	Tu	4f/ 4c/	.	.	4F\	Tu	.	4A\	Tu	.	4c\	Tu	.	4f\	Tu	.
4B-\ 4D\	so-	4b-/ 4f/	.	.	4D\	so-	.	4B-\	so-	.	4d\	so-	.	4b-\	so-	.
4B-\ 4BB-\	-lus	4dd/ 4f/	.	.	4BB-/	-lus	.	4B-\	-lus	.	4d\	-lus	.	4dd\	-lus	.
!	!	!	!	!	!	!	!	!	!	!	!LO:LB:g=original	!	!	!	!	!
=78	=78	=78	=78	=78	=78	=78	=78	=78	=78	=78	=78	=78	=78	=78	=78	=78
*	*	*^	*	*	*	*	*	*	*	*	*	*	*	*	*	*
2A\ 2FF\	Do-	2.ff/	2c\	.	.	2FF/	Do-	.	2A\	Do-	.	2c\	Do-	.	2.ff\	Do-	.
!LO:TX:t=P:problem:poprawki korekorskie wykreślone 2FF	!	!	!	!	!	!	!	!	!	!	!	!	!	!	!	!	!
2B-\ 2F\	-mi-	.	2d\	.	.	2F\	-mi-	.	2B-\	-mi-	.	2d\	-mi-	.	.	.	.
.	.	4ff/	.	.	.	.	.	.	.	.	.	.	.	.	4ff\	-mi-	.
*	*	*v	*v	*	*	*	*	*	*	*	*	*	*	*	*	*	*
=79	=79	=79	=79	=79	=79	=79	=79	=79	=79	=79	=79	=79	=79	=79	=79	=79
!LO:TX:t=P:problem:poprawki korekorskie wykreśłone 4FF	!	!	!	!	!	!	!	!	!	!	!	!	!	!	!	!
4A\ 4F\	-nus	4ff/ 4c/	.	.	4F\	-nus	.	4A\	-nus	.	4c\	-nus	.	4ff\	-nus	.
4r	.	4r	.	.	4r	.	.	4r	.	.	4r	.	.	4r	.	.
!	!	!	!	!	!	!	!LO:DY:a	!	!	!	!	!	!	!	!	!
4r	.	4r	.	.	4r	.	mf	4r	.	.	4r	.	.	4r	.	.
!	!	!	!	!	!	!	!	!	!	!LO:DY:a	!	!	!	!	!	!
4A\ 4F\	Tu	4ff/ 4f/	.	.	4F\	Tu	.	4A\	Tu	mf	4f\	Tu	.	4ff\	Tu	f
!	!	!	!	!	!	!	!	!LO:LB:g=original	!	!	!	!	!	!	!	!
=80	=80	=80	=80	=80	=80	=80	=80	=80	=80	=80	=80	=80	=80	=80	=80	=80
*	*	*^	*	*	*	*	*	*	*	*	*	*	*	*	*	*
2.B-\ 2.G\	so-	4ff/	2.g\	.	.	2.G\	so-	.	2.B-\	so-	.	2.g\	so-	.	(4ff\	so-	.
.	.	4ee/	.	.	.	.	.	.	.	.	.	.	.	.	4ee\	.	.
.	.	4dd/	.	.	.	.	.	.	.	.	.	.	.	.	4dd\)	.	.
4B-\ 4E\	-lus	4cc/	4g\	.	.	4E\	-lus	.	4B-\	-lus	.	4g\	-lus	.	4cc\	-lus	.
!	!	!	!	!	!	!	!	!	!	!	!	!	!	!	!LO:LB:g=original	!	!
=81	=81	=81	=81	=81	=81	=81	=81	=81	=81	=81	=81	=81	=81	=81	=81	=81	=81
*^	*	*	*	*	*	*	*	*	*	*	*	*	*	*	*	*	*
4.A/	2F\	San-	4.cc/	4.f\	.	.	2F\	San-	.	(4.A/	San-	.	(4.f\	San-	.	(4.cc\	San-	.
8F/	.	.	8dd/	8b-\	.	.	.	.	.	8F/)	.	.	8b-\)	.	.	8dd\)	.	.
4F/	4F\	ctus	4cc/	4a\	.	.	4F\	ctus	.	4F/	ctus	.	4a\	ctus	.	4cc\	ctus	.
4A/	4F\	Tu	4ff/	4f\	.	.	4F\	Tu	.	4A/	Tu	.	4f\	Tu	.	4ff\	Tu	.
*v	*v	*	*	*	*	*	*	*	*	*	*	*	*	*	*	*	*	*
=82	=82	=82	=82	=82	=82	=82	=82	=82	=82	=82	=82	=82	=82	=82	=82	=82	=82
2.B-\ 2.G\	so-	4ff/	2.g\	.	.	2.G\	so-	.	2.B-\	so-	.	2.g\	so-	.	(4ff\	so-	.
.	.	4ee/	.	.	.	.	.	.	.	.	.	.	.	.	4ee\	.	.
.	.	4dd/	.	.	.	.	.	.	.	.	.	.	.	.	4dd\)	.	.
4B-\ 4E\	-lus	4cc/	4g\	.	.	4E\	-lus	.	4B-\	-lus	.	4g\	-lus	.	4cc\	-lus	.
!	!	!	!	!	!	!LO:LB:g=original	!	!	!	!	!	!	!	!	!	!	!
=83	=83	=83	=83	=83	=83	=83	=83	=83	=83	=83	=83	=83	=83	=83	=83	=83	=83
*^	*	*	*	*	*	*	*	*	*	*	*	*	*	*	*	*	*
4.A/	4.F\	Do-	4.cc/	4.f\	.	.	4.F\	Do-	.	4.A\	Do-	.	4.f\	Do-	.	4.cc\	Do-	.
8F/	8F\	-mi-	8dd/	8b-\	.	.	8F\	-mi-	.	8F/	-mi-	.	8b-\	-mi-	.	8dd\	-mi-	.
4F/	4F\	-nus	4cc/	4a\	.	.	4F\	-nus	.	4F/	-nus	.	4a\	-nus	.	4cc\	-nus	.
4r	4ryy	.	4cc/	4r	.	.	4r	.	.	4r	.	.	4r	.	.	4cc\	Tu	.
*v	*v	*	*	*	*	*	*	*	*	*	*	*	*	*	*	*	*	*
!	!	!	!	!	!	!	!	!	!	!	!	!LO:LB:g=original	!	!	!	!	!
=84	=84	=84	=84	=84	=84	=84	=84	=84	=84	=84	=84	=84	=84	=84	=84	=84	=84
4r	.	2cc#X/	4r	.	.	4r	.	.	4r	.	.	4r	.	.	2cc#X\	so-	.
4A\ 4E\	Tu	.	4g\	.	.	4E\	Tu	.	4A\	Tu	.	4g\	Tu	.	.	.	.
4A\ 4E\	so-	4cc#/	4g\	.	.	4E\	so-	.	4A\	so-	.	4g\	so-	.	4cc#\	-lus	.
8A\L 8E\	-lus	4cc#/	8g\L	.	.	8E\	-lus	.	8A\	-lus	.	8g\	-lus	.	4cc#\	al-	.
8A\J 8E\	al-	.	8g\J	.	.	8E\	al-	.	8A\	al-	.	8g\	al-	.	.	.	.
!LO:LB:g=original	!	!	!	!	!	!	!	!	!LO:LB:g=original	!	!	!	!	!	!	!	!
=85	=85	=85	=85	=85	=85	=85	=85	=85	=85	=85	=85	=85	=85	=85	=85	=85	=85
!LO:TX:t=P:problem:poprawki korekorskie wykreślone 4.D	!	!	!	!	!	!	!	!	!	!	!	!	!	!	!	!	!
4.A\ 4.E\	-tis-	4.cc#X/ 4.g/	2ryy	.	.	4.E\	-tis-	.	4.A\	-tis-	.	4.g\	-tis-	.	4.cc#X\	-ti-	.
8A\ 8D\	-si-	8dd/ 8f/	.	.	.	8D\	-si-	.	8A\	-si-	.	8f\	-si-	.	8dd\	-ssi-	.
(4A\ 4D\	-mus	4dd/	(4f\	.	.	(4D\	-mus	.	(4A\	-mus	.	(4f\	-mus	.	4dd\	-mus	.
4d\ 4BB-\)	.	4r	4g\)	.	.	4BB-\)	.	.	4d\)	.	.	4g\)	.	.	4r	.	.
*	*	*v	*v	*	*	*	*	*	*	*	*	*	*	*	*	*	*
!	!	!	!	!	!	!	!	!	!	!	!	!	!	!	!LO:LB:g=original	!
=86	=86	=86	=86	=86	=86	=86	=86	=86	=86	=86	=86	=86	=86	=86	=86	=86
*^	*	*	*	*	*	*	*	*	*	*	*	*	*	*	*	*
!	!	!	!	!	!	!LO:TX:a:t=1.	!	!	!	!	!	!	!	!	!	!	!
2c/	2.C\	Je-	4ccn/ 4a/	.	.	2.C\	Je-	.	(2c\	Je-	.	(4a\	Je-	.	(4ccn\	Je-	.
.	.	.	4a/ 4f/	.	.	.	.	.	.	.	.	4f\	.	.	4a\	.	.
!LO:TX:t=P:problem:poprawki korekorskie wykreślone 4B	!	!	!	!	!	!	!	!	!	!	!	!	!	!	!	!	!
4B-\	.	.	8a/L 8f/	.	.	.	.	.	4B-\)	.	.	8f\L	.	.	8a\L	.	.
.	.	.	8g/ 8e/	.	.	.	.	.	.	.	.	8e\	.	.	8g\	.	.
!	!	!	!	!	!	!LO:TX:a:t=vi	!	!	!	!	!	!	!	!	!	!	!
4B-\ 4C\	4ryy	-su	8f/J 8d/	.	.	4C\	-su	.	4B-\	-su	.	8d\J)	.	.	8f\J)	.	.
.	.	.	8g/ 8e/	.	.	.	.	.	.	.	.	8e\	-su	.	8g\	-su	.
*v	*v	*	*	*	*	*	*	*	*	*	*	*	*	*	*	*	*
=87	=87	=87	=87	=87	=87	=87	=87	=87	=87	=87	=87	=87	=87	=87	=87	=87
!	!	!	!	!	!LO:TX:t=P:problem:8 taktów zapisane u dołu strony za pomocą odnośników "vi-de; vi-de" (zob. notatka u boku strony: "Przy końcu gloria...")	!	!	!	!	!	!	!	!	!	!	!
!	!	!	!	!	!LO:TX:t=de	!	!	!	!	!	!	!	!	!	!	!
4B-\ 4C\	Chris-	4g#X/ 4e/	.	.	4C/	Chri-	.	4B-\	Chris-	.	4e\	Chris-	.	4g#X\	Chris-	.
!	!	!	!	!	!LO:TX:b:t=2	!	!	!	!	!	!	!	!	!	!	!
4A\ 4F\	-te	4a/ 4f/	.	.	4F\	-ste	.	4A\	-te	.	4f\	-te	.	4a\	-te	.
4r	.	2r	.	.	4r	.	.	2r	.	.	2r	.	.	2r	.	.
4F\	.	.	.	.	4F\	Cum	.	.	.	.	.	.	.	.	.	.
!	!	!	!	!	!	!	!	!	!	!	!LO:LB:g=original	!	!	!	!	!
=88	=88	=88	=88	=88	=88	=88	=88	=88	=88	=88	=88	=88	=88	=88	=88	=88
*^	*	*^	*	*	*	*	*	*	*	*	*	*	*	*	*	*
4r	4F\	.	4r	4ryy	.	.	(4F\	san-	.	4r	.	.	4r	.	.	4r	.	.
4c/	4E\	Cum	4b-/	4g\	.	.	4E\	.	.	4c\	Cum	.	4g\	Cum	.	4b-\	Cum	.
4c/	4D\	san-	4b-/	4g\	.	.	4D\)	.	.	4c\	san-	.	4g\	san-	.	4b-\	san-	.
4c\	4C\	-cto	4b-/	4g\	.	.	4C\	-cto	.	4c\	-cto	.	4g\	-cto	.	4b-\	-cto	.
=89	=89	=89	=89	=89	=89	=89	=89	=89	=89	=89	=89	=89	=89	=89	=89	=89	=89	=89
4.c/	4C\	spi-	4.a/	4.f\	.	.	4C/	spi-	.	4.c\	spi-	.	4.f\	spi-	.	4.a\	spi-	.
.	4AA\	.	.	.	.	.	4AA/	-ri-	.	.	.	.	.	.	.	.	.	.
8c/	.	-ri-	8a/	8f\	.	.	.	.	.	8c\	-ri-	.	8f\	-ri-	.	8a\	-ri-	.
!	!	!	!	!	!	!	!	!	!	!LO:SIC:l:s=tu	!	!	!	!	!	!	!	!
4c/	4FF\	-tus	4a/	4f\	.	.	4FF/	-tu	.	4c\	-tus	.	4f\	-tu	.	4a\	-tu	.
4r	4F\	.	4r	4ryy	.	.	4F\	in	.	4r	.	.	4r	.	.	4r	.	.
*v	*v	*	*	*	*	*	*	*	*	*	*	*	*	*	*	*	*	*
!	!	!	!	!	!	!	!	!	!LO:LB:g=original	!	!	!	!	!	!	!	!
=90	=90	=90	=90	=90	=90	=90	=90	=90	=90	=90	=90	=90	=90	=90	=90	=90	=90
4c\ 4F\	glo-	4b-/	4g\	.	.	4F\	glo-	.	4c\	glo-	.	4g\	glo-	.	4b-\	glo-	.
8c\L 8E\	-ri-	8b-/L	8g\	.	.	8E\	-ri-	.	8c\	-ri-	.	8g\	-ri-	.	8b-\	-ri-	.
8c\J 8E\	-a	8b-/J	8g\	.	.	8E\	-a	.	8c\	-a	.	8g\	-a	.	8b-\	-a	.
4c\ 4D\	De-	4b-/	4g\	.	.	4D\	De-	.	4c\	De-	.	4g\	De-	.	4b-\	De-	.
4c\ 4C\	-i	4b-/	4g\	.	.	4C/	-i	.	4c\	-i	.	4g\	-i	.	4b-\	-i	.
!	!	!	!	!	!	!	!	!	!	!	!	!	!	!	!LO:LB:g=original	!	!
=91	=91	=91	=91	=91	=91	=91	=91	=91	=91	=91	=91	=91	=91	=91	=91	=91	=91
*^	*	*	*	*	*	*	*	*	*	*	*	*	*	*	*	*	*
2c/	(4C\	Pa-	2a/	2f\	.	.	(4C/	Pa-	.	2c\	Pa-	.	2f\	Pa-	.	2a\	Pa-	.
.	4AA\)	.	.	.	.	.	4AA/)	.	.	.	.	.	.	.	.	.	.	.
4c/	4FF\	-tris	4a/	4f\	.	.	4FF/	-tris	.	4c\	-tris	.	4f\	-tris	.	4a\	-tris	.
4r	4r	.	4cc/	4r	.	.	4r	.	.	4r	.	.	4r	.	.	4cc\	in	.
*v	*v	*	*	*	*	*	*	*	*	*	*	*	*	*	*	*	*	*
*	*	*v	*v	*	*	*	*	*	*	*	*	*	*	*	*	*	*
!LO:LB:g=original	!	!	!	!	!	!	!	!	!	!	!	!	!	!	!	!
=92	=92	=92	=92	=92	=92	=92	=92	=92	=92	=92	=92	=92	=92	=92	=92	=92
2A\ 2E\	glo-	2cc#X/ 2g/	.	.	2E\	glo-	.	2A\	glo-	.	2g\	glo-	.	2cc#X\	glo-	.
4A\ 4E\	-ri-	4cc#/ 4g/	.	.	4E\	-ri-	.	4A\	-ri-	.	4g\	-ri-	.	4cc#\	-ri-	.
4A\ 4E\	-a	4cc#/ 4g/	.	.	4E\	-a	.	4A\	-a	.	4g\	-a	.	4cc#\	-a	.
!	!	!	!	!	!	!	!	!	!	!	!LO:LB:g=original	!	!	!	!	!
=93	=93	=93	=93	=93	=93	=93	=93	=93	=93	=93	=93	=93	=93	=93	=93	=93
*^	*	*^	*	*	*	*	*	*	*	*	*	*	*	*	*	*
!LO:TX:t=P:problem:poprawki korekorskie wykreślone 2E	!	!	!	!	!	!	!	!	!	!	!	!	!	!	!	!	!	!
2.A/	4E\	De-	4cc#X/ 4g/	2.ryy	.	.	(4E\	De-	.	2.A\	De-	.	4g\	De-	.	(4cc#X\	De-	.
.	4D\	.	4dd/ 4f/	.	.	.	4D\)	.	.	.	.	.	2f\	.	.	4dd\)	.	.
.	(4D\	.	4dd/ 4f/	.	.	.	(4D\	-i	.	.	.	.	.	.	.	4dd\	-i	.
4d/	4BB-\)	i	4r	4g\	.	.	4BB-/)	.	.	4d\	i	.	4g\	i	.	4r	.	.
=94	=94	=94	=94	=94	=94	=94	=94	=94	=94	=94	=94	=94	=94	=94	=94	=94	=94	=94
!	!	!	!	!	!	!	!LO:TX:t=vi	!	!	!	!	!	!	!	!	!	!	!
!LO:TX:t=P:problem:poprawki korekorskie wykreślone 2c	!	!	!	!	!	!	!LO:TX:b:t=3	!	!	!	!	!	!	!	!	!	!	!
4A/	1C\	Pa-	4ccn/	2f\	.	.	1C/	Pa-	.	(4A\	Pa-	.	2f\	Pa-	.	4ccn\	Pa-	.
4c/	.	.	(4a/	.	.	.	.	.	.	4c\)	.	.	.	.	.	2a\	.	.
2B-/	.	.	4a/	2e\	.	.	.	.	.	2B-\	.	.	2e\	.	.	.	.	.
!LO:TX:t=P:problem:poprawki korekorskie wykreślone 4B	!	!	!	!	!	!	!	!	!	!	!	!	!	!	!	!	!	!
.	.	.	4g/)	.	.	.	.	.	.	.	.	.	.	.	.	4g\	.	.
*v	*v	*	*	*	*	*	*	*	*	*	*	*	*	*	*	*	*	*
*	*	*v	*v	*	*	*	*	*	*	*	*	*	*	*	*	*	*
!	!	!	!	!	!	!	!	!LO:LB:g=original	!	!	!	!	!	!	!	!
=95	=95	=95	=95	=95	=95	=95	=95	=95	=95	=95	=95	=95	=95	=95	=95	=95
!	!	!	!	!	!LO:TX:t=de	!	!	!	!	!	!	!	!	!	!	!
4A\ 4F\	-tris	4f\	.	.	4F\	-tris	.	4A\	-tris	.	4f\	-tris	.	4f\	-tris	.
4r	.	4r	.	.	4r	.	.	4r	.	.	4r	.	.	4r	.	.
!	!	!	!	!	!	!	!	!	!	!LO:HP:a:t=dimin	!	!	!	!	!	!
4F\	A-	2r	.	.	4F\	A-	.	4F/	A-	>	2r	.	.	2r	.	.
4F\	-men	.	.	.	4F\	-men	.	4F/	-men	.	.	.	.	.	.	.
!	!	!	!	!	!	!	!	!	!	!	!	!	!	!LO:LB:g=original	!	!
=96	=96	=96	=96	=96	=96	=96	=96	=96	=96	=96	=96	=96	=96	=96	=96	=96
*	*	*^	*	*	*	*	*	*	*	*	*	*	*	*	*	*
!	!	!	!	!	!	!	!	!	!	!	!	!	!	!LO:HP:a:t=diminu	!	!	!
1d\ 1F\	A-	1b-/	1f\	.	.	1F\	A-	.	1d\	A-	.	1f\	A-	>	1b-\	A-	.
*	*	*v	*v	*	*	*	*	*	*	*	*	*	*	*	*	*	*
!	!	!	!	!	!LO:LB:g=original	!	!	!	!	!	!	!	!	!	!	!
=97	=97	=97	=97	=97	=97	=97	=97	=97	=97	=97	=97	=97	=97	=97	=97	=97
4c\ 4F\	-men	4a/ 4f/	.	.	4F\	-men	.	4c\	-men	.	4f\	-men	.	4a\	-men	.
4r	.	4r	.	.	4r	.	.	4r	.	.	4r	.	.	4r	.	.
4F\	A-	2r	.	.	4F\	A-	.	4F/	A-	.	2r	.	.	2r	.	.
4F\	-men	.	.	.	4F\	-men	.	4F/	-men	.	.	.	.	.	.	.
=98	=98	=98	=98	=98	=98	=98	=98	=98	=98	=98	=98	=98	=98	=98	=98	=98
*	*	*^	*	*	*	*	*	*	*	*	*	*	*	*	*	*
!	!	!	!	!	!	!	!	!	!	!	!LO:DY:rj	!	!	!	!	!	!
1B-\ 1C\	A-	1g/	1e\	.	.	1C/	A-	.	1B-\	A-	p	1e\	A-	.	1g\	A-	.
*	*	*v	*v	*	*	*	*	*	*	*	*	*	*	*	*	*	*
!	!	!	!	!	!	!	!	!	!	!	!LO:LB:g=original	!	!	!	!	!
=99	=99	=99	=99	=99	=99	=99	=99	=99	=99	=99	=99	=99	=99	=99	=99	=99
4A\ 4FF\	-men	4f/ 4c/	.	.	4FF/	-men	.	4A\	-men	.	4c\	-men	.	4f\	-men	.
4r	.	4r	.	.	4r	.	.	4r	.	.	4r	.	.	4r	.	.
2r	.	2r	.	.	2r	.	.	2r	.	.	2r	.	.	2r	.	.
!LO:LB:g=original	!	!	!	!	!	!	!	!	!	!	!	!	!	!	!	!
=100	=100	=100	=100	=100	=100	=100	=100	=100	=100	=100	=100	=100	=100	=100	=100	=100
*^	*	*^	*	*	*	*	*	*	*	*	*	*	*	*	*	*
!	!	!	!	!	!	!	!	!	!LO:DY:rj	!	!	!LO:DY:rj	!	!	!LO:DY:rj:a	!	!	!
2A/	2F\	A-	1f/	2c\	.	.	2F\	A-	p	(2A\	A-	p	2c\	A-	p	1f/	A-	.
2B-/	2BB-\	.	.	2d\	.	.	2BB-/	.	.	2B-\)	.	.	2d\	.	.	.	.	.
=101	=101	=101	=101	=101	=101	=101	=101	=101	=101	=101	=101	=101	=101	=101	=101	=101	=101	=101
1A/	1F\	-men	1f/;	1c\	.	.	1F\;	-men	.	1A\;	-men	.	1c\;	-men	.	1f/;	-men	.
*v	*v	*	*	*	*	*	*	*	*	*	*	*	*	*	*	*	*	*
*	*	*v	*v	*	*	*	*	*	*	*	*	*	*	*	*	*	*
==	==	==	==	==	==	==	==	==	==	==	==	==	==	==	==	==
*-	*-	*-	*-	*-	*-	*-	*-	*-	*-	*-	*-	*-	*-	*-	*-	*-
!!!system-decoration: [(s1,s2,s3,s4)][(s5,s6)]
!!!RDF**kern: > = above
!!!RDF**kern: < = below
!!!EED: Leszek Kubiak
!!!EST: 2021-01-29
!!!AIN: 1 alto 3 empty 1 soprn 1 tenor
!!!ENC: Kamil Watkowski
!!!END: 2020-01-22
